src/images/icon-adv-2.svg

<svg width="79" height="81" viewBox="0 0 79 81" fill="none" xmlns="http://www.w3.org/2000/svg">
<path d="M27.8001 7.49998C27.8001 11.6 24.5001 14.9 20.5001 14.9C16.3001 14.9 13.0001 11.5 13.1001 7.29998C13.1001 3.19998 16.5001 0.0999756 20.6001 0.0999756C24.7001 0.0999756 27.9001 3.39998 27.8001 7.49998Z" fill="white"/>
<path d="M28.4 29.3C30.8 36.2 33.7 44.9 36.2 51.7999C37 54.0999 35.8 55.6 33 55.7C32.7 55.7 32.5 55.7 32.2 55.7C31.8 55.7 31.4 55.7 31 55.7C30 55.6 29.7 55.8999 29.8 56.7999C29.9 63 30 69.2 30.1 75.5C30.1 76.2 30.1 76.8999 29.9 77.5999C29.3 79.2999 27.3 80.3999 25.4 80.2C23 79.8999 21.8 78.5999 21.7 76.6999C21.6 70.1999 21.5 63.5999 21.4 57.0999C21.4 56.8999 21.5 56.7999 21.4 56.5999C21.3 56.2999 19.9 56.2999 19.8 56.5999C19.7 57 19.8 57.3999 19.8 57.7999C19.8 63.8999 19.9 70 19.9 76.0999C19.9 78.3999 18.6 80 16.2 80.1C13.6 80.2 11.6 78.7 11.5 76.4C11.4 71.7 11.4 67 11.3 62.2999C11.3 60.0999 11.3 58 11.3 55.7C10.2 55.7 9.20001 55.7 8.30001 55.7C5.40001 55.7 4.20001 54.3 5.00001 51.9C7.70001 44.2 10.2 36.9 12.9 29.2C13 29 12.6 28.6 12.2 29.3C10.7 33.5 9.00001 37 7.50001 41.2C6.90001 43 5.20001 43.7999 3.20001 43.2999C1.50001 42.9 0.500013 41.4 1.10001 39.7C2.90001 34.3 4.80001 29 7.50001 24.1C10 19.7 13.4 15.2 19.8 15.2C25.8 15.2 30.3 17.5 34.7 26C36 29.4 38.6 35.3 39.8 38.7C40.1 39.5 40.2 40.2999 40 41.0999C39.7 42.4999 38.2 43.2999 36.5 43.2999C34.5 43.2999 33.8 41.9 33.6 41.4C32.2 37.6 30.4 33 29 29.2C28.7 28.5 28.1 28.4 28.4 29.3Z" fill="white"/>
<path d="M36.2001 37.4C37.7001 36.8 39.1001 37.4 40.6001 38.3C45.6001 41.5 51.1001 43.4 57.1001 43.2C64.1001 42.9 69.6001 40.4 72.0001 33.2C72.7001 31.3 74.4001 30.5 76.2001 31.1C78.0001 31.7 79.0001 33.4 78.4001 35.4C76.6001 41.3 72.8001 45.4 67.3001 47.8C66.2001 48.3 66.0001 48.8 66.0001 49.9C66.1001 58.4 66.1001 66.9 66.0001 75.4C66.0001 76.6 65.6001 77.8 65.0001 78.8C64.2001 80.1 62.8001 80.3 61.4001 79.7C60.0001 79.2 59.2001 78.1 59.2001 76.6C59.2001 72.3 59.2001 68.1 59.1001 63.8C59.1001 63.5 59.1001 63.1 59.1001 62.8C59.1001 62.5 58.9001 62.3 58.6001 62.3H57.7001C57.3001 62.3 57.1001 62.5 57.1001 62.8C57.1001 65.7 57.1001 68.5 57.1001 71.3C57.1001 72.8 57.0001 74.3 57.1001 75.8C57.3001 78.3 55.3001 79.9 53.7001 79.9C51.6001 79.9 50.2001 78.3 50.2001 75.9C50.2001 67.6 50.1001 59.3 50.2001 51C50.2001 49.8 50.0001 49.2 48.6001 48.9C44.3001 48 40.4001 46.2 36.7001 43.9C34.3001 42.4 33.2001 41.1 34.1001 39.1C34.4001 38.6 34.9001 37.9 36.2001 37.4Z" fill="white"/>
<path d="M64.9999 34.2C64.9999 38 61.9999 41 58.1999 41C54.3999 41 51.3999 38 51.3999 34.2C51.3999 30.4 54.4999 27.3 58.1999 27.3C61.9999 27.3 64.9999 30.4 64.9999 34.2Z" fill="white"/>
</svg>

<svg xmlns="http://www.w3.org/2000/svg" width="79" height="81" fill="none" viewBox="0 0 79 81">
	<path fill="#fff" d="M27.8 7.5c0 4.1-3.3 7.4-7.3 7.4-4.2 0-7.5-3.4-7.4-7.6 0-4.1 3.4-7.2 7.5-7.2s7.3 3.3 7.2 7.4zM28.4 29.3c2.4 6.9 5.3 15.6 7.8 22.5.8 2.3-.4 3.8-3.2 3.9h-2c-1-.1-1.3.2-1.2 1.1.1 6.2.2 12.4.3 18.7 0 .7 0 1.4-.2 2.1-.6 1.7-2.6 2.8-4.5 2.6-2.4-.3-3.6-1.6-3.7-3.5l-.3-19.6c0-.2.1-.3 0-.5-.1-.3-1.5-.3-1.6 0-.1.4 0 .8 0 1.2 0 6.1.1 12.2.1 18.3 0 2.3-1.3 3.9-3.7 4-2.6.1-4.6-1.4-4.7-3.7-.1-4.7-.1-9.4-.2-14.1v-6.6h-3c-2.9 0-4.1-1.4-3.3-3.8 2.7-7.7 5.2-15 7.9-22.7.1-.2-.3-.6-.7.1C10.7 33.5 9 37 7.5 41.2c-.6 1.8-2.3 2.6-4.3 2.1-1.7-.4-2.7-1.9-2.1-3.6C2.9 34.3 4.8 29 7.5 24.1c2.5-4.4 5.9-8.9 12.3-8.9 6 0 10.5 2.3 14.9 10.8 1.3 3.4 3.9 9.3 5.1 12.7.3.8.4 1.6.2 2.4-.3 1.4-1.8 2.2-3.5 2.2-2 0-2.7-1.4-2.9-1.9-1.4-3.8-3.2-8.4-4.6-12.2-.3-.7-.9-.8-.6.1z"/>
	<path fill="#fff" d="M36.2 37.4c1.5-.6 2.9 0 4.4.9 5 3.2 10.5 5.1 16.5 4.9 7-.3 12.5-2.8 14.9-10 .7-1.9 2.4-2.7 4.2-2.1 1.8.6 2.8 2.3 2.2 4.3-1.8 5.9-5.6 10-11.1 12.4-1.1.5-1.3 1-1.3 2.1.1 8.5.1 17 0 25.5 0 1.2-.4 2.4-1 3.4-.8 1.3-2.2 1.5-3.6.9-1.4-.5-2.2-1.6-2.2-3.1 0-4.3 0-8.5-.1-12.8v-1c0-.3-.2-.5-.5-.5h-.9c-.4 0-.6.2-.6.5v8.5c0 1.5-.1 3 0 4.5.2 2.5-1.8 4.1-3.4 4.1-2.1 0-3.5-1.6-3.5-4 0-8.3-.1-16.6 0-24.9 0-1.2-.2-1.8-1.6-2.1-4.3-.9-8.2-2.7-11.9-5-2.4-1.5-3.5-2.8-2.6-4.8.3-.5.8-1.2 2.1-1.7z"/>
	<path fill="#fff" d="M65 34.2c0 3.8-3 6.8-6.8 6.8s-6.8-3-6.8-6.8 3.1-6.9 6.8-6.9c3.8 0 6.8 3.1 6.8 6.9z"/>
</svg>
